build/img/envelope.svg

<svg  viewBox="0 0 19 14" fill="none" xmlns="http://www.w3.org/2000/svg">
<path d="M16.6805 0H2.3234C1.0418 0 0 1.0087 0 2.24959V11.7504C0 12.9913 1.0418 14 2.3234 14H16.6766C17.9582 14 19 12.9913 19 11.7504V2.2534C19.0039 1.01251 17.9621 0 16.6805 0ZM17.9425 11.7504C17.9425 12.4241 17.3764 12.9723 16.6805 12.9723H2.3234C1.62756 12.9723 1.06145 12.4241 1.06145 11.7504V2.2534C1.06145 1.57966 1.62756 1.03154 2.3234 1.03154H16.6766C17.3724 1.03154 17.9385 1.57966 17.9385 2.2534V11.7504H17.9425Z" fill="#00B2FF"/>
<path d="M11.9827 6.88195L16.6295 2.84715C16.8457 2.65683 16.8654 2.33328 16.6688 2.12012C16.4723 1.91077 16.1381 1.89174 15.9179 2.08206L9.50992 7.65085L8.25977 6.56982C8.25584 6.56602 8.2519 6.56221 8.2519 6.5584C8.22439 6.53176 8.19687 6.50892 8.16542 6.48608L3.07831 2.07825C2.85816 1.88793 2.524 1.90696 2.32743 2.12012C2.13087 2.33328 2.15052 2.65683 2.37068 2.84715L7.07251 6.91621L2.39033 11.1604C2.17804 11.3545 2.16625 11.678 2.36674 11.8874C2.47289 11.994 2.61442 12.0511 2.75594 12.0511C2.88568 12.0511 3.01541 12.0054 3.11762 11.914L7.87057 7.60898L9.16004 8.72426C9.26225 8.8118 9.38805 8.85367 9.51385 8.85367C9.63965 8.85367 9.76939 8.808 9.86767 8.72045L11.1925 7.57091L15.9179 11.9178C16.0202 12.013 16.1538 12.0587 16.2836 12.0587C16.4251 12.0587 16.5627 12.0054 16.6688 11.8988C16.8693 11.6933 16.8615 11.3659 16.6492 11.1718L11.9827 6.88195Z" fill="#00B2FF"/>
</svg>

<svg viewBox="0 0 19 14" fill="none" xmlns="http://www.w3.org/2000/svg"><path d="M16.68 0H2.323C1.042 0 0 1.009 0 2.25v9.5C0 12.991 1.042 14 2.323 14h14.354C17.958 14 19 12.991 19 11.75V2.253C19.004 1.013 17.962 0 16.68 0zm1.262 11.75c0 .674-.566 1.222-1.262 1.222H2.323c-.695 0-1.262-.548-1.262-1.222V2.253c0-.673.567-1.221 1.262-1.221h14.354c.695 0 1.262.548 1.262 1.221v9.497h.003z" fill="#00B2FF"/><path d="M11.983 6.882l4.646-4.035a.505.505 0 00.04-.727.546.546 0 00-.751-.038L9.51 7.651 8.26 6.57c-.004-.004-.008-.008-.008-.012a.78.78 0 00-.087-.072L3.078 2.078a.542.542 0 00-.75.042.502.502 0 00.043.727l4.702 4.07L2.39 11.16a.504.504 0 00-.023.727.541.541 0 00.75.027l4.754-4.305L9.16 8.724a.54.54 0 00.708-.004l1.325-1.15 4.725 4.348c.102.095.236.14.366.14a.537.537 0 00.385-.16.504.504 0 00-.02-.726l-4.666-4.29z" fill="#00B2FF"/></svg>
